!!!COM: Bach, Johann Sebastian
!!!OTL@@DE: 281. Wo soll ich fliehen hin
!!!OTL@EN: Whither am I to flee?
!!!SCA: BWV 89.6
**harm	**root	**kern	**kern	**kern	**kern
*staff2	*	*staff2	*staff2	*staff1	*staff1
*Iorgan	*Iorgan	*Iorgan	*Iorgan	*Iorgan	*Iorgan
!	!	!bass	!tenor	!alto	!sprno
*	*	*clefF4	*clefF4	*clefG2	*clefG2
*k[b-]	*k[b-]	*k[b-]	*k[b-]	*k[b-]	*k[b-]
*d:	*d:	*d:	*d:	*d:	*d:
*met(c)	*met(c)	*met(c)	*met(c)	*met(c)	*met(c)
*M4/4	*M4/4	*M4/4	*M4/4	*M4/4	*M4/4
*MM60	*MM60	*MM60	*MM60	*MM60	*MM60
i	4GG	4DD	4F	4A	4d
=1	=1	=1	=1	=1	=1
i	4GG	4D	4F	4A	4d
V	4DD	4C#	4E	4A	4e
i	4GG	4D	8DL	4A	4f
.	.	.	8FJ	.	.
ivb	4CC	4BB-	4B-	4d	4g
=2	=2	=2	=2	=2	=2
V;	2.DD;	2.AA;	2.E;	2.c#;	2.a;
V7c	4DD	4GG	4E	4c#	4a
=3	=3	=3	=3	=3	=3
ib	4GG	4FF	4F	4d	4a
viiob	4FF#	4EE	4G	8dL	4g
.	.	.	.	8c#J	.
i	4GG	4DD	4A	4d	4f
iiob	4AA	4GG	4B-	4e	4g
=4	=4	=4	=4	=4	=4
V;	2.DD;	2.AA;	2.A;	2.c;	2.e#;
*F:	*F:	*F:	*F:	*F:	*F:
V/VI	4DD	4AA	4A	4c	4e#
=5	=5	=5	=5	=5	=5
vi	4GG	4D	4A	4d	4f
V	4FF	4C	4c	4e	4g
I	4BB-	8FL	4c	4f	4a
.	.	8E	.	.	.
vi	4GG	8D	4d	4f	4a
.	.	8CJ	.	.	.
=6	=6	=6	=6	=6	=6
iv7b	4EE-	4BB-	4d	4f	2g
V	4FF	4C	4c	4e	.
I;	4BB-;	4FF;	4c;	4f;	4a;
Vb/VI	4DD	4C#	4A	4e	4a
=7	=7	=7	=7	=7	=7
!!linebreak: 2
vi	4GG	(4D	4A	4d	4f
V	4FF	8CL	4c	8eL	4g
.	.	8BB-J)	.	8dJ	.
Ib	4BB-	8AAL	4F	4c	4a
.	.	8GG	.	.	.
I	4BB-	8FF	4F	4c	4a
.	.	8AAJ	.	.	.
=8	=8	=8	=8	=8	=8
ii7	4CC	8BB-L	4F	4d	2g
.	.	8GGJ	.	.	.
V	4FF	4C	4E	4c	.
I;	4BB-;	4FF;	4A;	4c;	4f;
I	4BB-	4F	4c	4f	4a
=9	=9	=9	=9	=9	=9
Vb	4FF	4E	4c	4g	4cc
I	4BB-	4F	8cL	4f	4a
.	.	.	8dJ	.	.
Vb/VI	4DD	4C#	8eL	4e	4a
.	.	.	8EJ	.	.
vi	4GG	4D	4F	4d	4a
=10	=10	=10	=10	=10	=10
V7b/V	4CC	4BB	4F	4d	2g
Vc	8FF	4GG	8EL	8cL	.
V/V	8CC	.	8DJ	8BJ	.
V;	4FF;	4C;	4E;	4c;	4g;
*d:	*d:	*d:	*d:	*d:	*d:
ivb	4CC	4BB-	4D	4d	4g
=11	=11	=11	=11	=11	=11
V	4DD	8AAL	4E	4c#	4a
.	.	8GGJ	.	.	.
V7c	4DD	8FFL	4A	4c#	4g
.	.	8EEJ	.	.	.
i	4GG	8DDL	4A	4d	4f
.	.	8CJ	.	.	.
ivb	8CC	8BB-L	8GL	4d	8gL
ic	8GG	8AAJ	8AJ	.	8fJ
=12	=12	=12	=12	=12	=12
iio7	4AA	4GG	4B-	4d	2e
V7	4DD	4AA	8AL	4c#	.
.	.	.	8GJ	.	.
I;	4GG;	4DD;	4F#;	4A;	4d;
==	==	==	==	==	==
*-	*-	*-	*-	*-	*-
!!!ENC: Craig Stuart Sapp
!!!END: 2004/12/06/
!!chor2scor: -l 2 -s 0.6 -o %b.pmx
